static/logos/audi-glyph-color.svg

<svg width="66" height="22" viewBox="0 0 66 22" fill="none" xmlns="http://www.w3.org/2000/svg">
<g clip-path="url(#clip0_1204_78)">
<path fill-rule="evenodd" clip-rule="evenodd" d="M12.18 0C6.05002 0 0.898024 5.06 1.00002 11.18C1.10602 17.188 6.08002 22 12.18 22C14.8 22 17.212 21.112 19.12 19.624C21.1033 21.1684 23.5463 22.0049 26.06 22C28.68 22 31.092 21.112 33 19.624C34.9833 21.1684 37.4263 22.0049 39.94 22C42.56 22 44.972 21.112 46.88 19.624C48.8633 21.1684 51.3063 22.0049 53.82 22C59.92 22 64.896 17.188 65 11.18C65.102 5.06 59.95 0 53.82 0C51.222 0 48.8 0.908 46.88 2.42C44.9048 0.855644 42.4597 0.00304654 39.94 0C37.342 0 34.92 0.908 33 2.42C31.0248 0.855644 28.5797 0.00304654 26.06 0C23.462 0 21.04 0.908 19.12 2.42C17.1448 0.855644 14.6997 0.00304654 12.18 0ZM26.06 19.504C24.14 19.504 22.366 18.888 20.93 17.846C22.5033 15.9198 23.3622 13.5089 23.3611 11.0219C23.36 8.53492 22.499 6.12478 20.924 4.2C22.4101 3.09797 24.21 2.50081 26.06 2.496C27.964 2.496 29.748 3.134 31.196 4.2C29.6211 6.12478 28.7601 8.53492 28.759 11.0219C28.7579 13.5089 29.6168 15.9198 31.19 17.846C29.6987 18.9279 27.9024 19.5085 26.06 19.504ZM20.826 11.14C20.8525 9.27729 20.2516 7.45981 19.12 5.98C18.0105 7.42855 17.4092 9.20235 17.4092 11.027C17.4092 12.8516 18.0105 14.6254 19.12 16.074C20.1983 14.6523 20.7958 12.9241 20.826 11.14ZM14.882 11.18C14.847 8.63946 15.7089 6.16792 17.316 4.2C15.83 3.09797 14.0301 2.50081 12.18 2.496C7.44602 2.496 3.45402 6.432 3.53402 11.14C3.61202 15.78 7.45802 19.504 12.18 19.504C14.1 19.504 15.874 18.888 17.31 17.846C15.7763 15.9598 14.9212 13.6107 14.882 11.18ZM37.238 11.182C37.273 8.64146 36.4111 6.16992 34.804 4.202C36.2901 3.09997 38.09 2.5028 39.94 2.498C41.844 2.498 43.628 3.136 45.076 4.202C43.5011 6.12677 42.6401 8.53691 42.639 11.0239C42.6379 13.5109 43.4968 15.9218 45.07 17.848C43.5787 18.9299 41.7824 19.5105 39.94 19.506C38.02 19.506 36.246 18.89 34.81 17.848C36.3424 15.961 37.1973 13.6125 37.238 11.182ZM45.174 11.144C45.1475 9.28129 45.7484 7.46381 46.88 5.984C47.9895 7.43255 48.5908 9.20635 48.5908 11.031C48.5908 12.8556 47.9895 14.6294 46.88 16.078C45.801 14.6565 45.2048 12.9283 45.174 11.144ZM53.818 19.508C51.898 19.508 50.124 18.892 48.688 17.85C50.2613 15.9238 51.1202 13.5129 51.1191 11.0259C51.118 8.53891 50.257 6.12878 48.682 4.204C50.1681 3.10197 51.968 2.50481 53.818 2.5C58.552 2.5 62.544 6.436 62.464 11.144C62.386 15.784 58.54 19.508 53.818 19.508ZM34.704 11.202C34.7316 9.33884 34.1314 7.52061 33 6.04C31.891 7.48838 31.29 9.26178 31.29 11.086C31.29 12.9102 31.891 14.6836 33 16.132C34.0783 14.7103 34.6758 12.9821 34.706 11.198" fill="black"/>
</g>
<defs>
<clipPath id="clip0_1204_78">
<rect width="66" height="22" fill="white"/>
</clipPath>
</defs>
</svg>

<svg xmlns="http://www.w3.org/2000/svg" width="192" height="64" fill="none" viewBox="0 0 66 22"><g clip-path="url(#a)"><path fill="#000" fill-rule="evenodd" d="M12.18 0C6.05 0 .898 5.06 1 11.18 1.106 17.188 6.08 22 12.18 22c2.62 0 5.032-.888 6.94-2.376A11.26 11.26 0 0 0 26.06 22c2.62 0 5.032-.888 6.94-2.376A11.26 11.26 0 0 0 39.94 22c2.62 0 5.032-.888 6.94-2.376A11.26 11.26 0 0 0 53.82 22c6.1 0 11.076-4.812 11.18-10.82C65.102 5.06 59.95 0 53.82 0c-2.598 0-5.02.908-6.94 2.42A11.2 11.2 0 0 0 39.94 0C37.342 0 34.92.908 33 2.42A11.2 11.2 0 0 0 26.06 0c-2.598 0-5.02.908-6.94 2.42A11.2 11.2 0 0 0 12.18 0m13.88 19.504a8.7 8.7 0 0 1-5.13-1.658A10.78 10.78 0 0 0 20.924 4.2a8.66 8.66 0 0 1 5.136-1.704c1.904 0 3.688.638 5.136 1.704a10.78 10.78 0 0 0-.006 13.646 8.7 8.7 0 0 1-5.13 1.658m-5.234-8.364a8.3 8.3 0 0 0-1.706-5.16 8.3 8.3 0 0 0 0 10.094 8.4 8.4 0 0 0 1.706-4.934m-5.944.04a10.8 10.8 0 0 1 2.434-6.98 8.66 8.66 0 0 0-5.136-1.704c-4.734 0-8.726 3.936-8.646 8.644.078 4.64 3.924 8.364 8.646 8.364 1.92 0 3.694-.616 5.13-1.658a10.85 10.85 0 0 1-2.428-6.666m22.356.002a10.8 10.8 0 0 0-2.434-6.98 8.66 8.66 0 0 1 5.136-1.704c1.904 0 3.688.638 5.136 1.704a10.78 10.78 0 0 0-.006 13.646 8.7 8.7 0 0 1-5.13 1.658 8.7 8.7 0 0 1-5.13-1.658 10.87 10.87 0 0 0 2.428-6.666m7.936-.038a8.3 8.3 0 0 1 1.706-5.16 8.3 8.3 0 0 1 0 10.094 8.4 8.4 0 0 1-1.706-4.934m8.644 8.364a8.7 8.7 0 0 1-5.13-1.658 10.78 10.78 0 0 0-.006-13.646A8.66 8.66 0 0 1 53.818 2.5c4.734 0 8.726 3.936 8.646 8.644-.078 4.64-3.924 8.364-8.646 8.364m-19.114-8.306A8.3 8.3 0 0 0 33 6.04a8.3 8.3 0 0 0 0 10.092 8.4 8.4 0 0 0 1.706-4.934" clip-rule="evenodd"/></g><defs><clipPath id="a"><path fill="#fff" d="M0 0h66v22H0z"/></clipPath></defs></svg>
